X:16360
T:Temperance Reel
T:Teetotaller's Reel
S:David Bromberg, sessions
M:C|
R:reel
K:G
(3DEF|"G"G2GF GABc|dBge dBAc|"Em"BE E/E/E EFGA|"D"BGAF GFED|
"G"~G3F GABc|dBge dBAc|"Em"BEED EFGA|"D"BGAF "G"G2:|
A2|"Em"Beed e3g|fgaf gfed|"D"Bdd^c d3 e|fgafgfed|
"Em"Beed e2 eg|fgaf gfed|BEED EFGA|"D"BGAF "G"G2:|
